lib/healthicons/icons/outline/medications/pills_4.svg

<svg fill="none" height="48" viewBox="0 0 48 48" width="48" xmlns="http://www.w3.org/2000/svg"><g clip-rule="evenodd" fill="#333" fill-rule="evenodd"><path d="m14.5 21c3.5899 0 6.5-2.9101 6.5-6.5s-2.9101-6.5-6.5-6.5-6.5 2.9101-6.5 6.5 2.9101 6.5 6.5 6.5zm0 2c4.6944 0 8.5-3.8056 8.5-8.5 0-4.69442-3.8056-8.5-8.5-8.5-4.69442 0-8.5 3.80558-8.5 8.5 0 4.6944 3.80558 8.5 8.5 8.5z"/><path d="m18.3396 11.9556c.3051.4603.1792 1.0808-.2811 1.3859l-6.012 3.9846c-.4604.3051-1.0809.1792-1.386-.2812-.3051-.4603-.1793-1.0808.2811-1.3859l6.012-3.9846c.4603-.3051 1.0809-.1792 1.386.2812z"/><path d="m33.5 21c3.5899 0 6.5-2.9101 6.5-6.5s-2.9101-6.5-6.5-6.5-6.5 2.9101-6.5 6.5 2.9101 6.5 6.5 6.5zm0 2c4.6944 0 8.5-3.8056 8.5-8.5 0-4.69442-3.8056-8.5-8.5-8.5s-8.5 3.80558-8.5 8.5c0 4.6944 3.8056 8.5 8.5 8.5z"/><path d="m31.9029 10.1797c.5181-.19145 1.0932.0733 1.2847.5913l2.5008 6.7651c.1915.518-.0732 1.0932-.5913 1.2847-.518.1914-1.0932-.0733-1.2847-.5913l-2.5007-6.7651c-.1915-.518.0732-1.0932.5912-1.2847z"/><path d="m14.5 40c3.5899 0 6.5-2.9101 6.5-6.5s-2.9101-6.5-6.5-6.5-6.5 2.9101-6.5 6.5 2.9101 6.5 6.5 6.5zm0 2c4.6944 0 8.5-3.8056 8.5-8.5s-3.8056-8.5-8.5-8.5c-4.69442 0-8.5 3.8056-8.5 8.5s3.80558 8.5 8.5 8.5z"/><path d="m16.2747 37.7509c-.5096.2127-1.0953-.0279-1.3081-.5376l-2.7787-6.6557c-.2128-.5096.0278-1.0953.5375-1.3081.5096-.2127 1.0953.0279 1.3081.5376l2.7787 6.6557c.2128.5096-.0278 1.0953-.5375 1.3081z"/><path d="m33.5 40c3.5899 0 6.5-2.9101 6.5-6.5s-2.9101-6.5-6.5-6.5-6.5 2.9101-6.5 6.5 2.9101 6.5 6.5 6.5zm0 2c4.6944 0 8.5-3.8056 8.5-8.5s-3.8056-8.5-8.5-8.5-8.5 3.8056-8.5 8.5 3.8056 8.5 8.5 8.5z"/><path d="m36.9885 30.4922c.3607.4183.314 1.0497-.1043 1.4104l-5.4623 4.7099c-.4182.3607-1.0497.314-1.4103-.1043-.3607-.4182-.314-1.0497.1043-1.4103l5.4622-4.71c.4183-.3606 1.0497-.3139 1.4104.1043z"/></g></svg>

<svg width="48" height="48" viewBox="0 0 48 48" fill="none" xmlns="http://www.w3.org/2000/svg">
<path fill-rule="evenodd" clip-rule="evenodd" d="M14.5 21C18.0899 21 21 18.0899 21 14.5C21 10.9101 18.0899 8 14.5 8C10.9101 8 8 10.9101 8 14.5C8 18.0899 10.9101 21 14.5 21ZM14.5 23C19.1944 23 23 19.1944 23 14.5C23 9.80558 19.1944 6 14.5 6C9.80558 6 6 9.80558 6 14.5C6 19.1944 9.80558 23 14.5 23Z" fill="#333333"/>
<path fill-rule="evenodd" clip-rule="evenodd" d="M18.3396 11.9556C18.6447 12.4159 18.5188 13.0364 18.0585 13.3415L12.0465 17.3261C11.5861 17.6312 10.9656 17.5053 10.6605 17.0449C10.3554 16.5846 10.4812 15.9641 10.9416 15.659L16.9536 11.6744C17.4139 11.3693 18.0345 11.4952 18.3396 11.9556Z" fill="#333333"/>
<path fill-rule="evenodd" clip-rule="evenodd" d="M33.5 21C37.0899 21 40 18.0899 40 14.5C40 10.9101 37.0899 8 33.5 8C29.9101 8 27 10.9101 27 14.5C27 18.0899 29.9101 21 33.5 21ZM33.5 23C38.1944 23 42 19.1944 42 14.5C42 9.80558 38.1944 6 33.5 6C28.8056 6 25 9.80558 25 14.5C25 19.1944 28.8056 23 33.5 23Z" fill="#333333"/>
<path fill-rule="evenodd" clip-rule="evenodd" d="M31.9029 10.1797C32.421 9.98825 32.9961 10.253 33.1876 10.771L35.6884 17.5361C35.8799 18.0541 35.6152 18.6293 35.0971 18.8208C34.5791 19.0122 34.0039 18.7475 33.8124 18.2295L31.3117 11.4644C31.1202 10.9464 31.3849 10.3712 31.9029 10.1797Z" fill="#333333"/>
<path fill-rule="evenodd" clip-rule="evenodd" d="M14.5 40C18.0899 40 21 37.0899 21 33.5C21 29.9101 18.0899 27 14.5 27C10.9101 27 8 29.9101 8 33.5C8 37.0899 10.9101 40 14.5 40ZM14.5 42C19.1944 42 23 38.1944 23 33.5C23 28.8056 19.1944 25 14.5 25C9.80558 25 6 28.8056 6 33.5C6 38.1944 9.80558 42 14.5 42Z" fill="#333333"/>
<path fill-rule="evenodd" clip-rule="evenodd" d="M16.2747 37.7509C15.7651 37.9636 15.1794 37.723 14.9666 37.2133L12.1879 30.5576C11.9751 30.048 12.2157 29.4623 12.7254 29.2495C13.235 29.0368 13.8207 29.2774 14.0335 29.7871L16.8122 36.4428C17.025 36.9524 16.7844 37.5381 16.2747 37.7509Z" fill="#333333"/>
<path fill-rule="evenodd" clip-rule="evenodd" d="M33.5 40C37.0899 40 40 37.0899 40 33.5C40 29.9101 37.0899 27 33.5 27C29.9101 27 27 29.9101 27 33.5C27 37.0899 29.9101 40 33.5 40ZM33.5 42C38.1944 42 42 38.1944 42 33.5C42 28.8056 38.1944 25 33.5 25C28.8056 25 25 28.8056 25 33.5C25 38.1944 28.8056 42 33.5 42Z" fill="#333333"/>
<path fill-rule="evenodd" clip-rule="evenodd" d="M36.9885 30.4922C37.3492 30.9105 37.3025 31.5419 36.8842 31.9026L31.4219 36.6125C31.0037 36.9732 30.3722 36.9265 30.0116 36.5082C29.6509 36.09 29.6976 35.4585 30.1159 35.0979L35.5781 30.3879C35.9964 30.0273 36.6278 30.074 36.9885 30.4922Z" fill="#333333"/>
</svg>
